suite-common/icons/assets/icons/lightbulb.svg

<svg xmlns="http://www.w3.org/2000/svg" viewBox="0 0 22 22">
  <path fill-rule="evenodd" d="M10.047.552a8.2 8.2 0 0 0-2.719.824C4.44 2.819 2.642 5.838 2.762 9.038a8.2 8.2 0 0 0 .72 3.102c.519 1.162 1.205 2.044 2.417 3.109.481.422.555.604.591 1.453.021.485.043.664.1.81.162.418.493.746.913.905l.215.081h6.564l.215-.081c.42-.159.751-.487.913-.905.057-.146.079-.325.1-.81.037-.857.108-1.028.611-1.471 1.273-1.12 1.993-2.082 2.506-3.344a8.23 8.23 0 0 0-.224-6.779c-1.157-2.371-3.417-4.045-6.084-4.505C11.909.532 10.47.5 10.047.552m1.797 1.503a6.96 6.96 0 0 1 3.068 1.198c.491.346 1.22 1.07 1.559 1.55 1.601 2.267 1.699 5.177.251 7.513-.39.63-.76 1.039-1.701 1.887a2.9 2.9 0 0 0-.715.928c-.203.403-.269.704-.29 1.323l-.018.559H8.002l-.018-.559c-.022-.659-.089-.932-.35-1.438-.183-.355-.342-.53-1.229-1.352a6.3 6.3 0 0 1-1.495-2.022c-.637-1.342-.808-2.784-.508-4.278.217-1.08.805-2.233 1.585-3.111a6.8 6.8 0 0 1 4.029-2.179c.418-.06 1.406-.071 1.828-.019m-.445 1.536c-.364.199-.491.618-.305 1.01.101.213.289.325.738.436 1.42.352 2.543 1.474 2.875 2.871.113.475.201.625.438.746.307.157.647.11.87-.121.227-.234.274-.484.174-.917-.318-1.37-1.147-2.542-2.357-3.329-.892-.581-2.042-.909-2.433-.696M6.847 20.128c-.47.298-.445 1.015.044 1.274l.162.086 3.984-.01 3.984-.01.147-.101a.745.745 0 0 0-.015-1.239l-.171-.108H7.018z"/>
</svg>

<svg xmlns="http://www.w3.org/2000/svg" viewBox="0 0 22 22"><path d="M10.047 0.552 C 9.089 0.670,8.201 0.939,7.328 1.376 C 4.440 2.819,2.642 5.838,2.762 9.038 C 2.803 10.141,3.035 11.141,3.482 12.140 C 4.001 13.302,4.687 14.184,5.899 15.249 C 6.380 15.671,6.454 15.853,6.490 16.702 C 6.511 17.187,6.533 17.366,6.590 17.512 C 6.752 17.930,7.083 18.258,7.503 18.417 L 7.718 18.498 11.000 18.498 L 14.282 18.498 14.497 18.417 C 14.917 18.258,15.248 17.930,15.410 17.512 C 15.467 17.366,15.489 17.187,15.510 16.702 C 15.547 15.845,15.618 15.674,16.121 15.231 C 17.394 14.111,18.114 13.149,18.627 11.887 C 19.529 9.666,19.449 7.251,18.403 5.108 C 17.246 2.737,14.986 1.063,12.319 0.603 C 11.909 0.532,10.470 0.500,10.047 0.552 M11.844 2.055 C 12.901 2.185,14.010 2.618,14.912 3.253 C 15.403 3.599,16.132 4.323,16.471 4.803 C 18.072 7.070,18.170 9.980,16.722 12.316 C 16.332 12.946,15.962 13.355,15.021 14.203 C 14.689 14.502,14.500 14.747,14.306 15.131 C 14.103 15.534,14.037 15.835,14.016 16.454 L 13.998 17.013 11.000 17.013 L 8.002 17.013 7.984 16.454 C 7.962 15.795,7.895 15.522,7.634 15.016 C 7.451 14.661,7.292 14.486,6.405 13.664 C 5.732 13.040,5.290 12.441,4.910 11.642 C 4.273 10.300,4.102 8.858,4.402 7.364 C 4.619 6.284,5.207 5.131,5.987 4.253 C 7.017 3.094,8.492 2.296,10.016 2.074 C 10.434 2.014,11.422 2.003,11.844 2.055 M11.399 3.591 C 11.035 3.790,10.908 4.209,11.094 4.601 C 11.195 4.814,11.383 4.926,11.832 5.037 C 13.252 5.389,14.375 6.511,14.707 7.908 C 14.820 8.383,14.908 8.533,15.145 8.654 C 15.452 8.811,15.792 8.764,16.015 8.533 C 16.242 8.299,16.289 8.049,16.189 7.616 C 15.871 6.246,15.042 5.074,13.832 4.287 C 12.940 3.706,11.790 3.378,11.399 3.591 M6.847 20.128 C 6.377 20.426,6.402 21.143,6.891 21.402 L 7.053 21.488 11.037 21.478 L 15.021 21.468 15.168 21.367 C 15.606 21.063,15.599 20.411,15.153 20.128 L 14.982 20.020 11.000 20.020 L 7.018 20.020 6.847 20.128 " stroke="none" fill-rule="evenodd" fill="black"></path></svg>
